Newaita-dark/apps/64/com.github.lainsce.coin.svg

<svg height="64" viewBox="0 0 64 64" width="64" xmlns="http://www.w3.org/2000/svg" xmlns:xlink="http://www.w3.org/1999/xlink"><linearGradient id="a"><stop offset="0" stop-opacity=".313726"/><stop offset=".222222" stop-opacity=".27451"/><stop offset="1" stop-opacity="0"/></linearGradient><radialGradient id="b" cx="450.908936" cy="189.579361" gradientTransform="matrix(.00000035 -.156265 -.281277 -.0000002 89.046304 127.190659)" gradientUnits="userSpaceOnUse" r="21.166656" xlink:href="#a"/><radialGradient id="c" cx="450.908936" cy="189.579361" gradientTransform="matrix(-.00000035 .156265 .281277 .0000002 -25.540237 -15.054964)" gradientUnits="userSpaceOnUse" r="21.166656" xlink:href="#a"/><radialGradient id="d" cx="450.908936" cy="189.579361" gradientTransform="matrix(-.00000035 -.156265 .281277 -.0000002 -25.540237 127.190659)" gradientUnits="userSpaceOnUse" r="21.166656" xlink:href="#a"/><radialGradient id="e" cx="450.908936" cy="189.579361" gradientTransform="matrix(.00000035 .156265 -.281277 .0000002 89.0463 -15.054965)" gradientUnits="userSpaceOnUse" r="21.166656" xlink:href="#a"/><linearGradient id="f" gradientTransform="matrix(.0267201 0 0 .125012 24.930772 26.877567)" gradientUnits="userSpaceOnUse" x1="255.323059" x2="255.323044" y1="233.5" y2="254.666656"><stop offset="0" stop-opacity=".27451"/><stop offset="1" stop-opacity="0"/></linearGradient><linearGradient id="g" gradientUnits="userSpaceOnUse" x1="31.753048" x2="31.753048" y1="5.79220799994" y2="56.067868"><stop offset="0" stop-color="#ffb74d"/><stop offset="1" stop-color="#ffa726"/></linearGradient><linearGradient id="h" gradientTransform="matrix(.125012 0 0 -.125012 0 26.877566)" gradientUnits="userSpaceOnUse" x1="254" x2="254" y1="-201.75" y2="136.916672"><stop offset="0" stop-color="#e0e0e0"/><stop offset="1" stop-color="#bdbdbd"/></linearGradient><linearGradient id="i" gradientUnits="userSpaceOnUse" x1="31.753048" x2="31.753048" y1="5.79220799994" y2="56.067868"><stop offset="0" stop-color="#616161"/><stop offset="1" stop-color="#424242"/></linearGradient><path d="m36.382812 56.066406h5.292969v-2.644531h-5.292969zm0 0" fill="url(#b)"/><path d="m27.121094 56.066406h-5.289063v2.648438h5.289063zm0 0" fill="url(#c)"/><path d="m27.121094 56.066406h-5.289063v-2.644531h5.289063zm0 0" fill="url(#d)"/><path d="m36.382812 56.066406h5.292969v2.648438h-5.292969zm0 0" fill="url(#e)"/><path d="m27.121094 55.40625h9.261718v3.308594h-9.261718zm0 0" fill="url(#f)"/><path d="m31.753906 5.792969c13.882813 0 25.136719 11.253906 25.136719 25.136719 0 13.882812-11.253906 25.136718-25.136719 25.136718-13.882812 0-25.140625-11.253906-25.140625-25.136718 0-13.882813 11.257813-25.136719 25.140625-25.136719zm0 0" fill="url(#g)"/><path d="m31.753906 56.066406c-13.925781 0-25.140625-11.210937-25.140625-25.136718 0-.082032.003907-.164063.003907-.246094.128906 13.8125 11.292968 24.890625 25.136718 24.890625s25.003906-11.078125 25.136719-24.890625v.246094c0 13.925781-11.210937 25.136718-25.136719 25.136718zm0 0" fill-opacity=".196078"/><path d="m31.753906 5.792969c-13.925781 0-25.140625 11.210937-25.140625 25.136719 0 .082031.003907.164062.003907.246093.128906-13.8125 11.292968-24.890625 25.136718-24.890625s25.003906 11.078125 25.136719 24.890625c0-.082031 0-.164062 0-.246093 0-13.925782-11.210937-25.136719-25.136719-25.136719zm0 0" fill="#fff" fill-opacity=".392157"/><path d="m31.753906 5.605469c-14.027344 0-25.328125 11.296875-25.328125 25.324219 0 14.027343 11.300781 25.324218 25.328125 25.324218s25.324219-11.296875 25.324219-25.324218c0-14.027344-11.296875-25.324219-25.324219-25.324219zm0 .375c13.824219 0 24.949219 11.125 24.949219 24.949219 0 13.824218-11.125 24.949218-24.949219 24.949218-13.828125 0-24.953125-11.125-24.953125-24.949218 0-13.824219 11.125-24.949219 24.953125-24.949219zm0 0" fill="#212121"/><path d="m31.753906 52.097656c11.691406 0 21.167969-9.476562 21.167969-21.167968 0-11.691407-9.476563-21.167969-21.167969-21.167969s-21.167968 9.476562-21.167968 21.167969c0 11.691406 9.476562 21.167968 21.167968 21.167968zm0 0" fill="url(#h)"/><path d="m10.589844 31.425781c-.003906.164063-.003906.332031-.003906.496094 0 11.726563 9.441406 21.167969 21.167968 21.167969 11.726563 0 21.167969-9.441406 21.167969-21.167969 0-.164063-.003906-.332031-.007813-.496094-.261718 11.496094-9.597656 20.671875-21.160156 20.671875s-20.902344-9.175781-21.164062-20.671875zm0 0" fill="#fff" fill-opacity=".392157"/><path d="m31.753906 9.761719c-11.726562 0-21.167968 9.441406-21.167968 21.167969v.324218c.179687-11.570312 9.550781-20.832031 21.167968-20.832031 11.613282 0 20.984375 9.261719 21.164063 20.832031.003906-.105468.003906-.214844.003906-.324218 0-11.726563-9.441406-21.167969-21.167969-21.167969zm0 0" fill-opacity=".235294"/><path d="m254.006994-201.741453c93.522319 0 169.32758 75.805261 169.32758 169.32758s-75.805261 169.32758-169.32758 169.32758c-93.52232 0-169.32758-75.805261-169.32758-169.32758s75.80526-169.32758 169.32758-169.32758zm0 0" fill="none" stroke="#212121" stroke-linecap="round" stroke-width="3" transform="matrix(.125012 0 0 -.125012 0 26.877566)"/><path d="m30.429688 17.699219h2.644531c.734375 0 1.324219.59375 1.324219 1.324219v23.8125c0 .730468-.589844 1.324218-1.324219 1.324218h-2.644531c-.730469 0-1.324219-.59375-1.324219-1.324218v-23.8125c0-.730469.59375-1.324219 1.324219-1.324219zm0 0" fill="url(#i)"/><path d="m30.429688 17.699219c-.734376 0-1.324219.589843-1.324219 1.324219v.660156c0-.730469.589843-1.324219 1.324219-1.324219h2.644531c.734375 0 1.324219.59375 1.324219 1.324219v-.660156c0-.734376-.589844-1.324219-1.324219-1.324219zm0 0" fill="#fff" fill-opacity=".392157"/><path d="m29.105469 42.835938v.992187c0 .734375.589843 1.324219 1.324219 1.324219h2.644531c.734375 0 1.324219-.589844 1.324219-1.324219v-.992187c0 .734374-.589844 1.324218-1.324219 1.324218h-2.644531c-.734376 0-1.324219-.589844-1.324219-1.324218zm0 0" fill-opacity=".235294"/><path d="m243.414255-73.41977h21.15423c5.874439 0 10.592738 4.749546 10.592738 10.592738v190.48181c0 5.843192-4.718299 10.592739-10.592738 10.592739h-21.15423c-5.843192 0-10.592738-4.749547-10.592738-10.592739v-190.48181c0-5.843192 4.749546-10.592738 10.592738-10.592738zm0 0" fill="none" stroke="#212121" stroke-linecap="round" stroke-linejoin="round" stroke-width="3" transform="matrix(.125012 0 0 .125012 0 26.877566)"/></svg>

<?xml version="1.0" encoding="UTF-8"?>
<svg xmlns="http://www.w3.org/2000/svg" xmlns:xlink="http://www.w3.org/1999/xlink" width="64px" height="64px" viewBox="0 0 64 64" version="1.1">
<defs>
<radialGradient id="radial0" gradientUnits="userSpaceOnUse" cx="450.908936" cy="189.579361" fx="450.908936" fy="189.579361" r="21.166656" gradientTransform="matrix(0.000000348341,-0.156265,-0.281277,-0.000000203077,89.046304,127.190659)">
<stop offset="0" style="stop-color:rgb(0%,0%,0%);stop-opacity:0.313726;"/>
<stop offset="0.222222" style="stop-color:rgb(0%,0%,0%);stop-opacity:0.27451;"/>
<stop offset="1" style="stop-color:rgb(0%,0%,0%);stop-opacity:0;"/>
</radialGradient>
<radialGradient id="radial1" gradientUnits="userSpaceOnUse" cx="450.908936" cy="189.579361" fx="450.908936" fy="189.579361" r="21.166656" gradientTransform="matrix(-0.000000348341,0.156265,0.281277,0.000000203077,-25.540237,-15.054964)">
<stop offset="0" style="stop-color:rgb(0%,0%,0%);stop-opacity:0.313726;"/>
<stop offset="0.222222" style="stop-color:rgb(0%,0%,0%);stop-opacity:0.27451;"/>
<stop offset="1" style="stop-color:rgb(0%,0%,0%);stop-opacity:0;"/>
</radialGradient>
<radialGradient id="radial2" gradientUnits="userSpaceOnUse" cx="450.908936" cy="189.579361" fx="450.908936" fy="189.579361" r="21.166656" gradientTransform="matrix(-0.000000348341,-0.156265,0.281277,-0.000000203077,-25.540237,127.190659)">
<stop offset="0" style="stop-color:rgb(0%,0%,0%);stop-opacity:0.313726;"/>
<stop offset="0.222222" style="stop-color:rgb(0%,0%,0%);stop-opacity:0.27451;"/>
<stop offset="1" style="stop-color:rgb(0%,0%,0%);stop-opacity:0;"/>
</radialGradient>
<radialGradient id="radial3" gradientUnits="userSpaceOnUse" cx="450.908936" cy="189.579361" fx="450.908936" fy="189.579361" r="21.166656" gradientTransform="matrix(0.000000348341,0.156265,-0.281277,0.000000203077,89.0463,-15.054965)">
<stop offset="0" style="stop-color:rgb(0%,0%,0%);stop-opacity:0.313726;"/>
<stop offset="0.222222" style="stop-color:rgb(0%,0%,0%);stop-opacity:0.27451;"/>
<stop offset="1" style="stop-color:rgb(0%,0%,0%);stop-opacity:0;"/>
</radialGradient>
<linearGradient id="linear0" gradientUnits="userSpaceOnUse" x1="255.323059" y1="233.5" x2="255.323044" y2="254.666656" gradientTransform="matrix(0.0267201,0,0,0.125012,24.930772,26.877567)">
<stop offset="0" style="stop-color:rgb(0%,0%,0%);stop-opacity:0.27451;"/>
<stop offset="1" style="stop-color:rgb(0%,0%,0%);stop-opacity:0;"/>
</linearGradient>
<linearGradient id="linear1" gradientUnits="userSpaceOnUse" x1="254" y1="-168.666672" x2="254" y2="233.5" gradientTransform="matrix(0.125012,0,0,0.125012,0,26.877566)">
<stop offset="0" style="stop-color:rgb(100%,71.764708%,30.19608%);stop-opacity:1;"/>
<stop offset="1" style="stop-color:rgb(100%,65.490198%,14.901961%);stop-opacity:1;"/>
</linearGradient>
<linearGradient id="linear2" gradientUnits="userSpaceOnUse" x1="254" y1="-201.75" x2="254" y2="136.916672" gradientTransform="matrix(0.125012,0,0,-0.125012,0,26.877566)">
<stop offset="0" style="stop-color:rgb(87.843138%,87.843138%,87.843138%);stop-opacity:1;"/>
<stop offset="1" style="stop-color:rgb(74.117649%,74.117649%,74.117649%);stop-opacity:1;"/>
</linearGradient>
<linearGradient id="linear3" gradientUnits="userSpaceOnUse" x1="254" y1="-168.666672" x2="254" y2="233.5" gradientTransform="matrix(0.125012,0,0,0.125012,0,26.877566)">
<stop offset="0" style="stop-color:rgb(38.039216%,38.039216%,38.039216%);stop-opacity:1;"/>
<stop offset="1" style="stop-color:rgb(25.882354%,25.882354%,25.882354%);stop-opacity:1;"/>
</linearGradient>
</defs>
<g id="surface1">
<path style=" stroke:none;fill-rule:nonzero;fill:url(#radial0);" d="M 36.382812 56.066406 L 41.675781 56.066406 L 41.675781 53.421875 L 36.382812 53.421875 Z M 36.382812 56.066406 "/>
<path style=" stroke:none;fill-rule:nonzero;fill:url(#radial1);" d="M 27.121094 56.066406 L 21.832031 56.066406 L 21.832031 58.714844 L 27.121094 58.714844 Z M 27.121094 56.066406 "/>
<path style=" stroke:none;fill-rule:nonzero;fill:url(#radial2);" d="M 27.121094 56.066406 L 21.832031 56.066406 L 21.832031 53.421875 L 27.121094 53.421875 Z M 27.121094 56.066406 "/>
<path style=" stroke:none;fill-rule:nonzero;fill:url(#radial3);" d="M 36.382812 56.066406 L 41.675781 56.066406 L 41.675781 58.714844 L 36.382812 58.714844 Z M 36.382812 56.066406 "/>
<path style=" stroke:none;fill-rule:nonzero;fill:url(#linear0);" d="M 27.121094 55.40625 L 36.382812 55.40625 L 36.382812 58.714844 L 27.121094 58.714844 Z M 27.121094 55.40625 "/>
<path style=" stroke:none;fill-rule:nonzero;fill:url(#linear1);" d="M 31.753906 5.792969 C 45.636719 5.792969 56.890625 17.046875 56.890625 30.929688 C 56.890625 44.8125 45.636719 56.066406 31.753906 56.066406 C 17.871094 56.066406 6.613281 44.8125 6.613281 30.929688 C 6.613281 17.046875 17.871094 5.792969 31.753906 5.792969 Z M 31.753906 5.792969 "/>
<path style=" stroke:none;fill-rule:nonzero;fill:rgb(0%,0%,0%);fill-opacity:0.196078;" d="M 31.753906 56.066406 C 17.828125 56.066406 6.613281 44.855469 6.613281 30.929688 C 6.613281 30.847656 6.617188 30.765625 6.617188 30.683594 C 6.746094 44.496094 17.910156 55.574219 31.753906 55.574219 C 45.597656 55.574219 56.757812 44.496094 56.890625 30.683594 C 56.890625 30.765625 56.890625 30.847656 56.890625 30.929688 C 56.890625 44.855469 45.679688 56.066406 31.753906 56.066406 Z M 31.753906 56.066406 "/>
<path style=" stroke:none;fill-rule:nonzero;fill:rgb(100%,100%,100%);fill-opacity:0.392157;" d="M 31.753906 5.792969 C 17.828125 5.792969 6.613281 17.003906 6.613281 30.929688 C 6.613281 31.011719 6.617188 31.09375 6.617188 31.175781 C 6.746094 17.363281 17.910156 6.285156 31.753906 6.285156 C 45.597656 6.285156 56.757812 17.363281 56.890625 31.175781 C 56.890625 31.09375 56.890625 31.011719 56.890625 30.929688 C 56.890625 17.003906 45.679688 5.792969 31.753906 5.792969 Z M 31.753906 5.792969 "/>
<path style=" stroke:none;fill-rule:nonzero;fill:rgb(12.941177%,12.941177%,12.941177%);fill-opacity:1;" d="M 31.753906 5.605469 C 17.726562 5.605469 6.425781 16.902344 6.425781 30.929688 C 6.425781 44.957031 17.726562 56.253906 31.753906 56.253906 C 45.78125 56.253906 57.078125 44.957031 57.078125 30.929688 C 57.078125 16.902344 45.78125 5.605469 31.753906 5.605469 Z M 31.753906 5.980469 C 45.578125 5.980469 56.703125 17.105469 56.703125 30.929688 C 56.703125 44.753906 45.578125 55.878906 31.753906 55.878906 C 17.925781 55.878906 6.800781 44.753906 6.800781 30.929688 C 6.800781 17.105469 17.925781 5.980469 31.753906 5.980469 Z M 31.753906 5.980469 "/>
<path style=" stroke:none;fill-rule:nonzero;fill:url(#linear2);" d="M 31.753906 52.097656 C 43.445312 52.097656 52.921875 42.621094 52.921875 30.929688 C 52.921875 19.238281 43.445312 9.761719 31.753906 9.761719 C 20.0625 9.761719 10.585938 19.238281 10.585938 30.929688 C 10.585938 42.621094 20.0625 52.097656 31.753906 52.097656 Z M 31.753906 52.097656 "/>
<path style=" stroke:none;fill-rule:nonzero;fill:rgb(100%,100%,100%);fill-opacity:0.392157;" d="M 10.589844 31.425781 C 10.585938 31.589844 10.585938 31.757812 10.585938 31.921875 C 10.585938 43.648438 20.027344 53.089844 31.753906 53.089844 C 43.480469 53.089844 52.921875 43.648438 52.921875 31.921875 C 52.921875 31.757812 52.917969 31.589844 52.914062 31.425781 C 52.652344 42.921875 43.316406 52.097656 31.753906 52.097656 C 20.191406 52.097656 10.851562 42.921875 10.589844 31.425781 Z M 10.589844 31.425781 "/>
<path style=" stroke:none;fill-rule:nonzero;fill:rgb(0%,0%,0%);fill-opacity:0.235294;" d="M 31.753906 9.761719 C 20.027344 9.761719 10.585938 19.203125 10.585938 30.929688 C 10.585938 31.039062 10.585938 31.148438 10.585938 31.253906 C 10.765625 19.683594 20.136719 10.421875 31.753906 10.421875 C 43.367188 10.421875 52.738281 19.683594 52.917969 31.253906 C 52.921875 31.148438 52.921875 31.039062 52.921875 30.929688 C 52.921875 19.203125 43.480469 9.761719 31.753906 9.761719 Z M 31.753906 9.761719 "/>
<path style="fill:none;stroke-width:3;stroke-linecap:round;stroke-linejoin:miter;stroke:rgb(12.941177%,12.941177%,12.941177%);stroke-opacity:1;stroke-miterlimit:4;" d="M 254.006994 -201.741453 C 347.529313 -201.741453 423.334574 -125.936192 423.334574 -32.413873 C 423.334574 61.108446 347.529313 136.913707 254.006994 136.913707 C 160.484674 136.913707 84.679414 61.108446 84.679414 -32.413873 C 84.679414 -125.936192 160.484674 -201.741453 254.006994 -201.741453 Z M 254.006994 -201.741453 " transform="matrix(0.125012,0,0,-0.125012,0,26.877566)"/>
<path style=" stroke:none;fill-rule:nonzero;fill:url(#linear3);" d="M 30.429688 17.699219 L 33.074219 17.699219 C 33.808594 17.699219 34.398438 18.292969 34.398438 19.023438 L 34.398438 42.835938 C 34.398438 43.566406 33.808594 44.160156 33.074219 44.160156 L 30.429688 44.160156 C 29.699219 44.160156 29.105469 43.566406 29.105469 42.835938 L 29.105469 19.023438 C 29.105469 18.292969 29.699219 17.699219 30.429688 17.699219 Z M 30.429688 17.699219 "/>
<path style=" stroke:none;fill-rule:nonzero;fill:rgb(100%,100%,100%);fill-opacity:0.392157;" d="M 30.429688 17.699219 C 29.695312 17.699219 29.105469 18.289062 29.105469 19.023438 L 29.105469 19.683594 C 29.105469 18.953125 29.695312 18.359375 30.429688 18.359375 L 33.074219 18.359375 C 33.808594 18.359375 34.398438 18.953125 34.398438 19.683594 L 34.398438 19.023438 C 34.398438 18.289062 33.808594 17.699219 33.074219 17.699219 Z M 30.429688 17.699219 "/>
<path style=" stroke:none;fill-rule:nonzero;fill:rgb(0%,0%,0%);fill-opacity:0.235294;" d="M 29.105469 42.835938 L 29.105469 43.828125 C 29.105469 44.5625 29.695312 45.152344 30.429688 45.152344 L 33.074219 45.152344 C 33.808594 45.152344 34.398438 44.5625 34.398438 43.828125 L 34.398438 42.835938 C 34.398438 43.570312 33.808594 44.160156 33.074219 44.160156 L 30.429688 44.160156 C 29.695312 44.160156 29.105469 43.570312 29.105469 42.835938 Z M 29.105469 42.835938 "/>
<path style="fill:none;stroke-width:3;stroke-linecap:round;stroke-linejoin:round;stroke:rgb(12.941177%,12.941177%,12.941177%);stroke-opacity:1;stroke-miterlimit:4;" d="M 243.414255 -73.41977 L 264.568485 -73.41977 C 270.442924 -73.41977 275.161223 -68.670224 275.161223 -62.827032 L 275.161223 127.654778 C 275.161223 133.49797 270.442924 138.247517 264.568485 138.247517 L 243.414255 138.247517 C 237.571063 138.247517 232.821517 133.49797 232.821517 127.654778 L 232.821517 -62.827032 C 232.821517 -68.670224 237.571063 -73.41977 243.414255 -73.41977 Z M 243.414255 -73.41977 " transform="matrix(0.125012,0,0,0.125012,0,26.877566)"/>
</g>
</svg>
